svgs/sharp-solid/vihara.svg

<svg xmlns="http://www.w3.org/2000/svg" viewBox="0 0 640 512"><!--! Font Awesome Pro 6.6.0 by @fontawesome - https://fontawesome.com License - https://fontawesome.com/license (Commercial License) Copyright 2024 Fonticons, Inc. --><path d="M320 0s96 80 176 80l16 0 0 48-24 0-8 0 0 64 21.3 16c27.7 20.8 61.4 32 96 32l10.7 0 0 48-64 0 0 64 38.4 28.8C599 393.3 619.2 400 640 400l0 48-64 0 0 32 0 32-64 0 0-32 0-32-160 0 0 32 0 32-64 0 0-32 0-32-160 0 0 32 0 32-64 0 0-32 0-32L0 448l0-48c20.8 0 41-6.7 57.6-19.2L96 352l0-64-64 0 0-48 10.7 0c34.6 0 68.3-11.2 96-32L160 192l0-64-8 0-24 0 0-48 16 0C224 80 320 0 320 0zM160 352l320 0 0-64-320 0 0 64zM416 128l-72 0-24 0-24 0-72 0 0 64 192 0 0-64z"/></svg>

<svg xmlns="http://www.w3.org/2000/svg" viewBox="0 0 640 512"><!--! Font Awesome Pro 6.4.2 by @fontawesome - https://fontawesome.com License - https://fontawesome.com/license (Commercial License) Copyright 2023 Fonticons, Inc. --><path d="M320 0s96 80 176 80h16v48H488h-8v64l21.3 16c27.7 20.8 61.4 32 96 32H608v48H544v64l38.4 28.8C599 393.3 619.2 400 640 400v48H576v32 32H512V480 448H352v32 32H288V480 448H128v32 32H64V480 448H0V400c20.8 0 41-6.7 57.6-19.2L96 352V288H32V240H42.7c34.6 0 68.3-11.2 96-32L160 192V128h-8H128V80h16C224 80 320 0 320 0zM160 352H480V288H160v64zM416 128H344 320 296 224v64H416V128z"/></svg>
